symbols/web/local_drink/materialsymbolssharp/local_drink_wght200gradN25_48px.svg

<svg xmlns="http://www.w3.org/2000/svg" height="48" width="48"><path d="M12.25 41.95 8.3 6.05h31.4l-3.9 35.9Zm1.35-1.5h20.8l2.5-22.15H11.15ZM10.95 16.8h26.1L38 7.55H10ZM24 36.35q1.85 0 3.15-1.3 1.3-1.3 1.3-3.2 0-1.75-.95-3.65T24 23.25q-2.55 3.05-3.5 4.95-.95 1.9-.95 3.65 0 1.9 1.3 3.2 1.3 1.3 3.15 1.3Zm0-1.5q-1.2 0-2.075-.825-.875-.825-.875-2.075 0-1.4.775-2.9T24 25.75q1.4 1.9 2.175 3.325.775 1.425.775 2.875 0 1.25-.875 2.075-.875.825-2.075.825ZM11.15 18.3H36.9Z"/></svg>

<svg xmlns="http://www.w3.org/2000/svg" height="48" width="48"><path d="M12.25 41.95 8.3 6.05H39.7L35.8 41.95ZM13.6 40.45H34.4L36.9 18.3H11.15ZM10.95 16.8H37.05L38 7.55H10ZM24 36.35Q25.85 36.35 27.15 35.05Q28.45 33.75 28.45 31.85Q28.45 30.1 27.5 28.2Q26.55 26.3 24 23.25Q21.45 26.3 20.5 28.2Q19.55 30.1 19.55 31.85Q19.55 33.75 20.85 35.05Q22.15 36.35 24 36.35ZM24 34.85Q22.8 34.85 21.925 34.025Q21.05 33.2 21.05 31.95Q21.05 30.55 21.825 29.05Q22.6 27.55 24 25.75Q25.4 27.65 26.175 29.075Q26.95 30.5 26.95 31.95Q26.95 33.2 26.075 34.025Q25.2 34.85 24 34.85ZM11.15 18.3H36.9Z"/></svg>
